images_elementary_svg/cmd/lc_splitwindow.svg

<svg height="24" width="24" xmlns="http://www.w3.org/2000/svg" xmlns:xlink="http://www.w3.org/1999/xlink"><linearGradient id="a" gradientTransform="matrix(.72803 0 0 .72724 -8.96 -1.46)" gradientUnits="userSpaceOnUse" x1="29.476" x2="29.476" xlink:href="#m" y1="15.757" y2="21.257"/><linearGradient id="b"><stop offset="0" stop-color="#181818"/><stop offset="1" stop-color="#181818" stop-opacity="0"/></linearGradient><radialGradient id="c" cx="4.993" cy="43.5" gradientTransform="matrix(2.0038 0 0 1.4 29.715 -17.4)" gradientUnits="userSpaceOnUse" r="2.5" xlink:href="#b"/><radialGradient id="d" cx="4.993" cy="43.5" gradientTransform="matrix(2.0038 0 0 1.4 -18.285 -104.4)" gradientUnits="userSpaceOnUse" r="2.5" xlink:href="#b"/><linearGradient id="e" gradientTransform="matrix(1.1234 0 0 1 -2.962 0)" gradientUnits="userSpaceOnUse" x1="25.058" x2="25.058" y1="47.028" y2="39.999"><stop offset="0" stop-color="#181818" stop-opacity="0"/><stop offset=".5" stop-color="#181818"/><stop offset="1" stop-color="#181818" stop-opacity="0"/></linearGradient><radialGradient id="f" cx="7.686" cy="5.959" gradientTransform="matrix(0 1.15 -1.2044 0 19.177 -8.838)" gradientUnits="userSpaceOnUse" r="20"><stop offset="0" stop-color="#fafafa"/><stop offset="1" stop-color="#e1e1e1"/></radialGradient><linearGradient id="g" gradientUnits="userSpaceOnUse" x1="14" x2="14" y1="5" y2="7"><stop offset="0" stop-color="#e5e5e5"/><stop offset="1" stop-color="#d4d4d4"/></linearGradient><linearGradient id="h" gradientUnits="userSpaceOnUse" x1="12.002" x2="12.002" y1="5.000437" y2="19.916726"><stop offset="0" stop-color="#fff"/><stop offset=".017" stop-color="#fff" stop-opacity=".235"/><stop offset=".98" stop-color="#fff" stop-opacity=".157"/><stop offset="1" stop-color="#fff" stop-opacity=".392"/></linearGradient><linearGradient id="i" gradientTransform="matrix(.728 0 0 .7272 -8.96 -1.46)" gradientUnits="userSpaceOnUse" x1="29.476" x2="29.476" xlink:href="#m" y1="15.757" y2="21.257"/><clipPath id="j"><rect height="20" rx=".5" width="9" x="15" y="3"/></clipPath><clipPath id="k"><rect height="20" rx=".5" width="9" x="1" y="3"/></clipPath><linearGradient id="l" gradientTransform="matrix(.728 0 0 .7272 -31.95 -1.46)" gradientUnits="userSpaceOnUse" x1="29.476" x2="29.476" xlink:href="#m" y1="15.757" y2="21.257"/><linearGradient id="m"><stop offset="0" stop-color="#cdf87e"/><stop offset=".262" stop-color="#a2e34f"/><stop offset=".661" stop-color="#68b723"/><stop offset="1" stop-color="#1d7e0d"/></linearGradient><radialGradient id="n" cx="65.297" cy="48.216" gradientTransform="matrix(0 .2596 .2827 0 -12.223 -7.562)" gradientUnits="userSpaceOnUse" r="31" xlink:href="#m"/><linearGradient id="o" gradientTransform="matrix(.2052 0 0 .2037 -.58 7.28)" gradientUnits="userSpaceOnUse" x1="24.51" x2="24.139" y1="8.762" y2="35.623"><stop offset="0" stop-color="#fff"/><stop offset=".05" stop-color="#fff" stop-opacity=".235"/><stop offset="1" stop-color="#fff" stop-opacity=".157"/><stop offset="1" stop-color="#fff" stop-opacity=".392"/></linearGradient><linearGradient id="p" gradientTransform="matrix(.2052 0 0 .2037 -.593 7.284)" gradientUnits="userSpaceOnUse" x1="24.262" x2="24.139" y1="22.214" y2="24.912"><stop offset="0" stop-color="#fff"/><stop offset=".489" stop-color="#fff" stop-opacity=".235"/><stop offset="1" stop-color="#fff" stop-opacity=".157"/><stop offset="1" stop-color="#fff" stop-opacity=".392"/></linearGradient><path d="m2.47 11.03.026-2.02h-1.978l-.025 2.02-2-.018v1.976l2 .018-.05 1.994h1.98l.048-1.994h1.992v-1.976z" fill="url(#n)" transform="matrix(0 1 1 0 -.496 2.008)"/><g fill="none" stroke-width="1.472"><path d="m3.28 11.635.077-3.057h1.456l-.076 3.053m0 .73v2.544h-1.457v-2.545" opacity=".5" stroke="url(#o)" transform="matrix(.6793 0 0 .6793 8.804 -4.664)"/><path d="m10.53 2.5-.018-2h1.98l.016 2 1.996-.05v1.977l-1.996.05v1.993h-1.978v-1.994l-2.015.024v-1.976z" opacity=".5" stroke="#0f5a00" stroke-linecap="round" stroke-linejoin="round" stroke-width=".99993"/><path d="m5.1 12.01 1.935-.107v.108l-1.935.109m-2.183 0-2.25-.005v-.11l2.25.006" opacity=".5" stroke="url(#p)" transform="matrix(.6793 0 0 .6793 8.804 -4.664)"/></g><g transform="matrix(0 -1 1 0 -.496 .008)"><rect fill="url(#l)" height="2" rx=".5" width="4" x="-12.492" y="11"/><rect fill="none" height="2" opacity=".5" rx=".5" stroke="#0f5a00" width="4" x="-12.492" y="11"/><rect fill="#fff" height="2.007" opacity=".3" rx=".557" ry=".378" width="1.411" x="-9.903" y="10.982"/></g><g transform="matrix(0 -1 1 0 -.496 29)"><rect fill="url(#a)" height="2" rx=".5" width="4" x="10.5" y="11"/><rect fill="none" height="2" opacity=".5" rx=".5" stroke="#0f5a00" width="4" x="10.5" y="11"/><rect fill="#fff" height="2.007" opacity=".3" rx=".557" ry=".378" width="1.411" x="13.089" y="10.982"/></g><g transform="matrix(0 -1 1 0 -.496 35)"><rect fill="url(#i)" height="2.024" rx=".5" width="2.951" x="11.549" y="10.976"/><rect fill="none" height="1.976" opacity=".5" rx=".5" stroke="#0f5a00" width="2.976" x="11.524" y="11.024"/><rect fill="#fff" height="2.007" opacity=".3" rx=".557" ry=".378" width="1.411" x="13.089" y="10.982"/></g><g clip-path="url(#k)" transform="translate(14 1)"><g opacity=".4"><path d="m39.727 40h5v7h-5z" fill="url(#c)" transform="matrix(.579 0 0 .4286 -1.895 2.857)"/><path d="m-8.273-47h5v7h-5z" fill="url(#d)" transform="matrix(-.579 0 0 -.4286 -1.895 2.857)"/><path d="m8.272 40h31.455v7h-31.455z" fill="url(#e)" transform="matrix(.579 0 0 .4286 -1.895 2.857)"/></g><rect fill="url(#f)" height="17" rx=".5" width="20" x="2" y="4"/><path d="m2.5 3.5c-.554 0-1 .446-1 1v4.5h21v-4.5c0-.554-.446-1-1-1z" fill="url(#g)"/><g fill="none"><rect height="18" opacity=".3" rx="1" stroke="#0e141f" stroke-linecap="round" stroke-linejoin="round" width="21" x="1.5" y="3.5"/><path d="m2.5 4.5h19v16h-19z" opacity=".7" stroke="url(#h)" stroke-linecap="round" stroke-linejoin="round"/><path d="m2 8.5h20" opacity=".2" stroke="#000"/></g></g><g clip-path="url(#j)" transform="translate(-15 1)"><g opacity=".4"><path d="m39.727 40h5v7h-5z" fill="url(#c)" transform="matrix(.579 0 0 .4286 -1.895 2.857)"/><path d="m-8.273-47h5v7h-5z" fill="url(#d)" transform="matrix(-.579 0 0 -.4286 -1.895 2.857)"/><path d="m8.272 40h31.455v7h-31.455z" fill="url(#e)" transform="matrix(.579 0 0 .4286 -1.895 2.857)"/></g><rect fill="url(#f)" height="17" rx=".5" width="20" x="2" y="4"/><path d="m2.5 3.5c-.554 0-1 .446-1 1v4.5h21v-4.5c0-.554-.446-1-1-1z" fill="url(#g)"/><g fill="none"><rect height="18" opacity=".3" rx="1" stroke="#0e141f" stroke-linecap="round" stroke-linejoin="round" width="21" x="1.5" y="3.5"/><path d="m2.5 4.5h19v16h-19z" opacity=".7" stroke="url(#h)" stroke-linecap="round" stroke-linejoin="round"/><path d="m2 8.5h20" opacity=".2" stroke="#000"/></g></g></svg>

<svg xmlns="http://www.w3.org/2000/svg" xmlns:xlink="http://www.w3.org/1999/xlink" height="24" width="24"><defs><linearGradient xlink:href="#a" id="p" gradientUnits="userSpaceOnUse" gradientTransform="matrix(.72803 0 0 .72724 -8.96 -1.46)" x1="29.476" y1="15.757" x2="29.476" y2="21.257"/><linearGradient id="b"><stop offset="0" stop-color="#cdf87e"/><stop offset=".262" stop-color="#a2e34f"/><stop offset=".661" stop-color="#68b723"/><stop offset="1" stop-color="#1d7e0d"/></linearGradient><linearGradient id="c"><stop offset="0" stop-color="#fff"/><stop offset="0" stop-color="#fff" stop-opacity=".235"/><stop offset="1" stop-color="#fff" stop-opacity=".157"/><stop offset="1" stop-color="#fff" stop-opacity=".392"/></linearGradient><linearGradient id="d"><stop offset="0" stop-color="#fff"/><stop offset="0" stop-color="#fff" stop-opacity=".235"/><stop offset="1" stop-color="#fff" stop-opacity=".157"/><stop offset="1" stop-color="#fff" stop-opacity=".392"/></linearGradient><radialGradient id="e" gradientUnits="userSpaceOnUse" cy="43.5" cx="4.993" gradientTransform="matrix(2.0038 0 0 1.4 29.715 -17.4)" r="2.5"><stop stop-color="#181818" offset="0"/><stop stop-color="#181818" stop-opacity="0" offset="1"/></radialGradient><radialGradient id="f" gradientUnits="userSpaceOnUse" cy="43.5" cx="4.993" gradientTransform="matrix(2.0038 0 0 1.4 -18.285 -104.4)" r="2.5"><stop stop-color="#181818" offset="0"/><stop stop-color="#181818" stop-opacity="0" offset="1"/></radialGradient><linearGradient id="g" y2="39.999" gradientUnits="userSpaceOnUse" x2="25.058" gradientTransform="matrix(1.1234 0 0 1 -2.962 0)" y1="47.028" x1="25.058"><stop stop-color="#181818" stop-opacity="0" offset="0"/><stop stop-color="#181818" offset=".5"/><stop stop-color="#181818" stop-opacity="0" offset="1"/></linearGradient><radialGradient id="h" gradientUnits="userSpaceOnUse" cx="7.686" cy="5.959" r="20" gradientTransform="matrix(0 1.15 -1.2044 0 19.177 -8.838)"><stop stop-color="#fafafa" offset="0"/><stop stop-color="#e1e1e1" offset="1"/></radialGradient><linearGradient id="i" y2="17" gradientUnits="userSpaceOnUse" y1="15" gradientTransform="translate(-4 -10)" x2="18" x1="18"><stop stop-color="#e5e5e5" offset="0"/><stop stop-color="#d4d4d4" offset="1"/></linearGradient><linearGradient id="j" y2="41.229" gradientUnits="userSpaceOnUse" x2="24" gradientTransform="matrix(.4595 0 0 .4595 .974 .972)" y1="8.767" x1="24"><stop stop-color="#fff" offset="0"/><stop stop-color="#fff" stop-opacity=".235" offset=".017"/><stop stop-color="#fff" stop-opacity=".157" offset=".98"/><stop stop-color="#fff" stop-opacity=".392" offset="1"/></linearGradient><radialGradient xlink:href="#e" id="z" gradientUnits="userSpaceOnUse" gradientTransform="matrix(2.0038 0 0 1.4 29.715 -17.4)" cx="4.993" cy="43.5" r="2.5"/><radialGradient xlink:href="#f" id="A" gradientUnits="userSpaceOnUse" gradientTransform="matrix(2.0038 0 0 1.4 -18.285 -104.4)" cx="4.993" cy="43.5" r="2.5"/><linearGradient xlink:href="#g" id="B" gradientUnits="userSpaceOnUse" gradientTransform="matrix(1.1234 0 0 1 -2.962 0)" x1="25.058" y1="47.028" x2="25.058" y2="39.999"/><radialGradient xlink:href="#h" id="C" gradientUnits="userSpaceOnUse" gradientTransform="matrix(0 1.15 -1.2044 0 19.177 -8.838)" cx="7.686" cy="5.959" r="20"/><linearGradient xlink:href="#i" id="D" gradientUnits="userSpaceOnUse" gradientTransform="translate(-4 -10)" x1="18" y1="15" x2="18" y2="17"/><linearGradient xlink:href="#j" id="E" gradientUnits="userSpaceOnUse" gradientTransform="matrix(.4595 0 0 .4595 .974 .972)" x1="24" y1="8.767" x2="24" y2="41.229"/><radialGradient xlink:href="#e" id="s" gradientUnits="userSpaceOnUse" gradientTransform="matrix(2.0038 0 0 1.4 29.715 -17.4)" cx="4.993" cy="43.5" r="2.5"/><radialGradient xlink:href="#f" id="t" gradientUnits="userSpaceOnUse" gradientTransform="matrix(2.0038 0 0 1.4 -18.285 -104.4)" cx="4.993" cy="43.5" r="2.5"/><linearGradient xlink:href="#g" id="u" gradientUnits="userSpaceOnUse" gradientTransform="matrix(1.1234 0 0 1 -2.962 0)" x1="25.058" y1="47.028" x2="25.058" y2="39.999"/><radialGradient xlink:href="#h" id="v" gradientUnits="userSpaceOnUse" gradientTransform="matrix(0 1.15 -1.2044 0 19.177 -8.838)" cx="7.686" cy="5.959" r="20"/><linearGradient xlink:href="#i" id="w" gradientUnits="userSpaceOnUse" gradientTransform="translate(-4 -10)" x1="18" y1="15" x2="18" y2="17"/><linearGradient xlink:href="#j" id="x" gradientUnits="userSpaceOnUse" gradientTransform="matrix(.4595 0 0 .4595 .974 .972)" x1="24" y1="8.767" x2="24" y2="41.229"/><linearGradient xlink:href="#a" id="q" gradientUnits="userSpaceOnUse" gradientTransform="matrix(.728 0 0 .7272 -8.96 -1.46)" x1="29.476" y1="15.757" x2="29.476" y2="21.257"/><clipPath id="y"><rect ry=".5" rx=".5" y="3" x="15" height="20" width="9" fill="#7a36b1" stroke-opacity=".49"/></clipPath><clipPath id="r"><rect width="9" height="20" x="1" y="3" rx=".5" ry=".5" fill="#7a36b1" stroke-opacity=".49"/></clipPath></defs><linearGradient id="k"><stop offset="0"/><stop offset="1" stop-opacity="0"/></linearGradient><linearGradient id="o" gradientTransform="matrix(.728 0 0 .7272 -31.95 -1.46)" gradientUnits="userSpaceOnUse" x1="29.476" x2="29.476" xlink:href="#a" y1="15.757" y2="21.257"/><linearGradient id="a"><stop offset="0" stop-color="#cdf87e"/><stop offset=".262" stop-color="#a2e34f"/><stop offset=".661" stop-color="#68b723"/><stop offset="1" stop-color="#1d7e0d"/></linearGradient><radialGradient id="l" cx="65.297" cy="48.216" gradientTransform="matrix(0 .2596 .2827 0 -12.223 -7.562)" gradientUnits="userSpaceOnUse" r="31" xlink:href="#a"/><linearGradient id="m" gradientTransform="matrix(.2052 0 0 .2037 -.58 7.28)" gradientUnits="userSpaceOnUse" x1="24.51" x2="24.139" y1="8.762" y2="35.623"><stop offset="0" stop-color="#fff"/><stop offset=".05" stop-color="#fff" stop-opacity=".235"/><stop offset="1" stop-color="#fff" stop-opacity=".157"/><stop offset="1" stop-color="#fff" stop-opacity=".392"/></linearGradient><linearGradient id="n" gradientTransform="matrix(.2052 0 0 .2037 -.593 7.284)" gradientUnits="userSpaceOnUse" x1="24.262" x2="24.139" y1="22.214" y2="24.912"><stop offset="0" stop-color="#fff"/><stop offset=".489" stop-color="#fff" stop-opacity=".235"/><stop offset="1" stop-color="#fff" stop-opacity=".157"/><stop offset="1" stop-color="#fff" stop-opacity=".392"/></linearGradient><path d="M2.47 11.03l.026-2.02H.518l-.025 2.02-2-.018v1.976l2 .018L.443 15h1.98l.048-1.994h1.992V11.03z" fill="url(#l)" transform="matrix(0 1 1 0 -.496 2.008)"/><g fill="none" stroke-width="1.472"><path d="M3.28 11.635l.077-3.057h1.456l-.076 3.053m0 .73v2.544H3.28V12.36" opacity=".5" stroke="url(#m)" transform="translate(8.804 -4.664) scale(.6793)"/><path d="M10.53 2.5l-.018-2h1.98l.016 2 1.996-.05v1.977l-1.996.05V6.47H10.53V4.476L8.515 4.5V2.524z" opacity=".5" stroke="#0f5a00" stroke-linecap="round" stroke-linejoin="round" stroke-width=".9999296"/><path d="M5.1 12.01l1.935-.107v.108L5.1 12.12m-2.183 0l-2.25-.005v-.11l2.25.006" opacity=".5" stroke="url(#n)" transform="translate(8.804 -4.664) scale(.6793)"/></g><g transform="rotate(-90 -.244 .252)"><rect y="11" x="-12.492" width="4" ry=".5" rx=".5" height="2" fill="url(#o)"/><rect y="11" x="-12.492" width="4" ry=".5" rx=".5" height="2" opacity=".5" fill="none" stroke="#0f5a00"/><rect y="10.982" x="-9.903" width="1.411" ry=".378" rx=".557" height="2.007" opacity=".3" fill="#fff"/></g><g transform="rotate(-90 14.252 14.748)"><rect height="2" rx=".5" ry=".5" width="4" x="10.5" y="11" fill="url(#p)"/><rect height="2" rx=".5" ry=".5" width="4" x="10.5" y="11" opacity=".5" fill="none" stroke="#0f5a00"/><rect height="2.007" rx=".557" ry=".378" width="1.411" x="13.089" y="10.982" opacity=".3" fill="#fff"/></g><g transform="rotate(-90 17.252 17.748)"><rect y="10.976" x="11.549" width="2.951" ry=".5" rx=".5" height="2.024" fill="url(#q)"/><rect y="11.024" x="11.524" width="2.976" ry=".5" rx=".5" height="1.976" opacity=".5" fill="none" stroke="#0f5a00"/><rect y="10.982" x="13.089" width="1.411" ry=".378" rx=".557" height="2.007" opacity=".3" fill="#fff"/></g><g transform="translate(14 1)" clip-path="url(#r)"><g opacity=".4"><path fill="url(#s)" d="M39.727 40h5v7h-5z" transform="matrix(.579 0 0 .4286 -1.895 2.857)"/><path transform="matrix(-.579 0 0 -.4286 -1.895 2.857)" fill="url(#t)" d="M-8.273-47h5v7h-5z"/><path fill="url(#u)" d="M8.272 40h31.455v7H8.272z" transform="matrix(.579 0 0 .4286 -1.895 2.857)"/></g><g color="#000"><rect x="2" y="4" width="20" height="17" ry=".5" rx=".5" style="isolation:auto;mix-blend-mode:normal" solid-color="#000000" fill="url(#v)"/><path d="M2.5 3.5c-.554 0-1 .446-1 1V9h21V4.5c0-.554-.446-1-1-1z" style="isolation:auto;mix-blend-mode:normal" solid-color="#000000" fill="url(#w)"/><rect x="1.5" y="3.5" width="21" height="18" ry="1" rx="1" opacity=".3" fill="none" stroke="#0e141f" stroke-linecap="round" stroke-linejoin="round"/></g><path opacity=".7" fill="none" stroke="url(#x)" stroke-linecap="round" stroke-linejoin="round" d="M2.5 4.5h19v16h-19z"/><path d="M2 8.5h20" opacity=".2" fill="none" stroke="#000"/></g><g transform="translate(-15 1)" clip-path="url(#y)"><g opacity=".4"><path fill="url(#z)" d="M39.727 40h5v7h-5z" transform="matrix(.579 0 0 .4286 -1.895 2.857)"/><path transform="matrix(-.579 0 0 -.4286 -1.895 2.857)" fill="url(#A)" d="M-8.273-47h5v7h-5z"/><path fill="url(#B)" d="M8.272 40h31.455v7H8.272z" transform="matrix(.579 0 0 .4286 -1.895 2.857)"/></g><g color="#000"><rect style="isolation:auto;mix-blend-mode:normal" rx=".5" ry=".5" height="17" width="20" y="4" x="2" solid-color="#000000" fill="url(#C)"/><path style="isolation:auto;mix-blend-mode:normal" d="M2.5 3.5c-.554 0-1 .446-1 1V9h21V4.5c0-.554-.446-1-1-1z" solid-color="#000000" fill="url(#D)"/><rect rx="1" ry="1" height="18" width="21" y="3.5" x="1.5" opacity=".3" fill="none" stroke="#0e141f" stroke-linecap="round" stroke-linejoin="round"/></g><path opacity=".7" fill="none" stroke="url(#E)" stroke-linecap="round" stroke-linejoin="round" d="M2.5 4.5h19v16h-19z"/><path d="M2 8.5h20" opacity=".2" fill="none" stroke="#000"/></g></svg>
